X:1
T:Title
%%score { ( 1 4 ) | ( 2 3 ) }
L:1/8
M:4/4
K:Ab
V:1 bass nm="Grand Piano"
V:4 bass 
V:2 bass 
V:3 bass 
V:1
 z4 z2[Q:1/4=108] [E,CE]>[E,CE] | [E,CE]2 [E,CE]2 [F,CF]2 [_G,C]2 | [G,CE]6 E>E | G2 G2 A2 B2 | %4
[M:3/4] [A,CE]6 |[M:1/4] E>E |[M:4/4] A2 A2 [=Ec]2 [EG]2 | z2 c'>d' c'2 A>A | %8
 [=DG]2 [DF]2 [DG]2 [DA]2 |[M:9/8] B8- B |[M:1/4] E>E |[M:4/4] z2 c4 z2 | c6 z2 | z2 c4 z2 | %14
[M:3/4] e6 |[M:1/4] E>E |[M:4/4] F2 [=EG]2 [FA]2 [GB]2 | [Ac]2 [Ad]2 [Ae]2 [Af]>[Af] | %18
 [Ac]2 [Ac]4 [DFA]>[DEGB] |[M:3/4] [CEA]6 |] %20
V:2
 z4 z2 A,,>A,, | A,,2 A,,2 A,,2 =A,,2 | z2[K:treble] e>f e2[K:bass] E,>[D,E,] | %3
 [E,B,D]2 [E,B,D]2 [E,F,D]2 [E,G,D]2 |[M:3/4] z2[K:treble] e>f e2 |[M:1/4][K:bass] E,>E, | %6
[M:4/4] [F,A,C]2 [F,A,C]2 [C,G,]2 [C,C]2 | [F,CF]6 [F,CF]>[F,CF] | %8
 [B,,B,]2 [B,,A,]2 [B,,G,]2 [B,,F,]2 |[M:9/8] [E,G,D]8- [E,G,D] |[M:1/4] z2 | %11
[M:4/4] z2 [E,A,CE]>[F,A,C] [E,A,C]2 [F,A,DF]>[E,G,B,D] | z2 [E,A,C]>[F,A,C] [E,A,C]2 z2 | %13
 z2 [F,A,CF]>[F,B,C] [F,CF]2 z z/ [FA]/ |[M:3/4] z2 [E,B,E]>[E,CE] [E,DE]2 |[M:1/4] [C,A,]>[C,A,] | %16
[M:4/4] [D,A,D]2 [C,C]2 [F,C]2 [E,E]2 | [G,E]2 [F,D]2 [E,C]2 [D,B,]>[D,B,] | [E,E]2 [E,E]4 E,>E, | %19
[M:3/4] A,,6 |] %20
V:3
 x8 | x8 | B,,6[K:treble][K:bass] z2 | x8 |[M:3/4] A,,6[K:treble] |[M:1/4][K:bass] x2 |[M:4/4] x8 | %7
 x8 | x8 |[M:9/8] x9 |[M:1/4] x2 |[M:4/4] A,,6 z2 | A,,6 z2 | F,,6 [B,,B,]2 |[M:3/4] E,,6 | %15
[M:1/4] x2 |[M:4/4] x8 | x8 | x8 |[M:3/4] x6 |] %20
V:4
 x8 | x8 | x8 | x8 |[M:3/4] x6 |[M:1/4] x2 |[M:4/4] x8 | A6 z2 | x8 |[M:9/8] x9 |[M:1/4] x2 | %11
[M:4/4] c2 z z/ F/ E2 d>[Ge] | z2 E>F E2 E>E | c2 z z/ G/ G2 [FA=d]>B |[M:3/4] z2 G>A B2 | %15
[M:1/4] x2 |[M:4/4] x8 | x8 | x8 |[M:3/4] x6 |] %20

